src/svg/16/search_outline_16.svg

<?xml version="1.0" encoding="UTF-8"?>
<svg width="16px" height="16px" viewBox="0 0 16 16" version="1.1" xmlns="http://www.w3.org/2000/svg" xmlns:xlink="http://www.w3.org/1999/xlink">
    <title>search_outline_16</title>
    <desc>Created with Sketch.</desc>
    <g id="Page-2" stroke="none" stroke-width="1" fill="none" fill-rule="evenodd" opacity="0.919999957">
        <g id="search_outline_16">
            <rect id="Bounds" opacity="0.1" x="0" y="0" width="16" height="16"></rect>
            <path d="M9.82274838,10.8838166 C8.89966157,11.584658 7.74842899,12.0005841 6.50005583,12.0005841 C3.46245887,12.0005841 1,9.53801947 1,6.50029205 C1,3.46256463 3.46245887,1 6.50005583,1 C9.53765279,1 12.0001117,3.46256463 12.0001117,6.50029205 C12.0001117,7.74872199 11.5842013,8.90000668 10.8833868,9.82313431 L14.7790837,13.7233315 C15.0718077,14.0163938 15.0715336,14.4912674 14.7784714,14.7839915 C14.4854091,15.0767156 14.0105355,15.0764415 13.7178114,14.7833792 L9.82274838,10.8838166 Z M6.50005583,10.5005841 C8.70921124,10.5005841 10.5001117,8.70960677 10.5001117,6.50029205 C10.5001117,4.29097734 8.70921124,2.5 6.50005583,2.5 C4.29090042,2.5 2.5,4.29097734 2.5,6.50029205 C2.5,8.70960677 4.29090042,10.5005841 6.50005583,10.5005841 Z" id="↳-Icon-Color" fill="currentColor" fill-rule="nonzero"></path>
        </g>
    </g>
</svg>

<svg fill="none" height="16" viewBox="0 0 16 16" width="16" xmlns="http://www.w3.org/2000/svg"><path d="m6.50006 1c3.03759 0 5.50004 2.46256 5.50004 5.50029 0 1.24839-.4159 2.39964-1.1166 3.32275l3.8956 3.90026c.2927.2931.2924.768-.0006 1.0607-.2931.2927-.768.2924-1.0607-.0006l-3.89514-3.8995c-.92307.7008-2.07427 1.1167-3.3226 1.1167-3.0376 0-5.50006-2.46258-5.50006-5.50031s2.46246-5.50029 5.50006-5.50029zm0 1.5c-2.20916 0-4.00006 1.79098-4.00006 4.00029 0 2.20932 1.7909 4.00031 4.00006 4.00031 2.20915 0 4.00004-1.79099 4.00004-4.00031 0-2.20931-1.79089-4.00029-4.00004-4.00029z" fill="currentColor"/></svg>
